assets/efishery/obat-obatan-fill.svg

<svg width="24" height="25" viewBox="0 0 24 25" fill="none" xmlns="http://www.w3.org/2000/svg">
<path fill-rule="evenodd" clip-rule="evenodd" d="M5.75 2.27344C4.7835 2.27344 4 3.05694 4 4.02344V5.02344C4 5.72154 4.40876 6.32416 5 6.60503V7.79636L3.12596 10.6074C3.04383 10.7306 3 10.8754 3 11.0234V18.5234C3 20.0422 4.23122 21.2734 5.75 21.2734H9.25C9.39003 21.2734 9.52109 21.2351 9.63325 21.1683C9.37606 20.7262 9.21933 20.2522 9.15656 19.7734H5.75C5.05964 19.7734 4.5 19.2138 4.5 18.5234H9.20328C9.40606 17.5451 9.99694 16.6496 10.916 16.0864L15.5 13.2773V11.0234C15.5 10.8754 15.4562 10.7306 15.374 10.6074L13.5 7.79636V6.60503C14.0912 6.32416 14.5 5.72154 14.5 5.02344V4.02344C14.5 3.05694 13.7165 2.27344 12.75 2.27344H5.75ZM13.5153 10.5234H4.98472L6.37404 8.43946C6.45617 8.31626 6.5 8.17151 6.5 8.02344V7.27344H12V8.02344C12 8.17151 12.0438 8.31626 12.126 8.43946L13.5153 10.5234ZM5.5 4.02344C5.5 3.88537 5.61193 3.77344 5.75 3.77344H12.75C12.8881 3.77344 13 3.88537 13 4.02344V5.02344C13 5.16151 12.8881 5.27344 12.75 5.27344H5.75C5.61193 5.27344 5.5 5.16151 5.5 5.02344V4.02344ZM9.25 13.0234C8.97386 13.0234 8.75 13.2473 8.75 13.5234V14.5234H7.25C6.97386 14.5234 6.75 14.7473 6.75 15.0234C6.75 15.2996 6.97386 15.5234 7.25 15.5234H8.75V16.5234C8.75 16.7996 8.97386 17.0234 9.25 17.0234C9.52614 17.0234 9.75 16.7996 9.75 16.5234V15.5234H11.25C11.5261 15.5234 11.75 15.2996 11.75 15.0234C11.75 14.7473 11.5261 14.5234 11.25 14.5234H9.75V13.5234C9.75 13.2473 9.52614 13.0234 9.25 13.0234Z" fill="#1D1D1D"/>
<path fill-rule="evenodd" clip-rule="evenodd" d="M10.3175 20.8514C9.4518 19.4387 9.89523 17.5916 11.3079 16.7259L16.4238 13.5909C17.8365 12.7252 19.6835 13.1687 20.5492 14.5814C21.4149 15.9941 20.9715 17.8411 19.5588 18.7068L14.4429 21.8418C13.0302 22.7075 11.1832 22.2641 10.3175 20.8514ZM16.8213 20.2807L13.8213 15.2807L14.6788 14.7662L17.6788 19.7662L16.8213 20.2807Z" fill="#1D1D1D"/>
</svg>

<svg viewBox="0 0 24 25" xmlns="http://www.w3.org/2000/svg">
  <path fill-rule="evenodd" clip-rule="evenodd" d="M5.75 2.273A1.75 1.75 0 0 0 4 4.023v1c0 .699.409 1.301 1 1.582v1.191l-1.874 2.811a.75.75 0 0 0-.126.416v7.5a2.75 2.75 0 0 0 2.75 2.75h3.5c.14 0 .271-.038.383-.105a3.735 3.735 0 0 1-.476-1.395H5.75c-.69 0-1.25-.56-1.25-1.25h4.703a3.74 3.74 0 0 1 1.713-2.437l4.584-2.809v-2.254a.75.75 0 0 0-.126-.416L13.5 7.797V6.604c.591-.28 1-.883 1-1.582v-1a1.75 1.75 0 0 0-1.75-1.75h-7zm7.765 8.25h-8.53L6.374 8.44a.75.75 0 0 0 .126-.416v-.75H12v.75a.75.75 0 0 0 .126.416l1.39 2.084zM5.5 4.023a.25.25 0 0 1 .25-.25h7a.25.25 0 0 1 .25.25v1a.25.25 0 0 1-.25.25h-7a.25.25 0 0 1-.25-.25v-1zm3.75 9a.5.5 0 0 0-.5.5v1h-1.5a.5.5 0 0 0 0 1h1.5v1a.5.5 0 1 0 1 0v-1h1.5a.5.5 0 1 0 0-1h-1.5v-1a.5.5 0 0 0-.5-.5z"/>
  <path fill-rule="evenodd" clip-rule="evenodd" d="M10.318 20.851a3 3 0 0 1 .99-4.125l5.116-3.135a3 3 0 0 1 3.135 5.116l-5.116 3.135a3 3 0 0 1-4.125-.99zm6.503-.57-3-5 .858-.515 3 5-.858.515z"/>
</svg>
